site/web/app/themes/elefant/resources/assets/images/magnifier-grey.svg

<svg enable-background="new 0 0 485.2 485.2" viewBox="0 0 485.2 485.2" xmlns="http://www.w3.org/2000/svg"><g fill="#777"><path d="m471.9 407.6-111.3-111.4c-16.6 25.8-38.6 47.8-64.4 64.4l111.3 111.3c17.8 17.8 46.6 17.8 64.3 0 17.9-17.8 17.9-46.6.1-64.3z"/><path d="m363.9 182c0-100.5-81.5-182-182-182-100.4 0-181.9 81.5-181.9 182s81.5 182 182 182c100.4-.1 181.9-81.6 181.9-182zm-181.9 136.4c-75.3 0-136.5-61.2-136.5-136.5s61.2-136.4 136.5-136.4c75.2 0 136.5 61.2 136.5 136.5s-61.3 136.4-136.5 136.4z"/><path d="m75.8 182h30.3c0-41.8 34-75.8 75.8-75.8v-30.4c-58.5 0-106.1 47.6-106.1 106.2z"/></g></svg>

<?xml version="1.0" encoding="utf-8"?>
<!-- Generator: Adobe Illustrator 23.0.1, SVG Export Plug-In . SVG Version: 6.00 Build 0)  -->
<svg version="1.1" id="Capa_1" xmlns="http://www.w3.org/2000/svg" xmlns:xlink="http://www.w3.org/1999/xlink" x="0px" y="0px"
	 viewBox="0 0 485.2 485.2" style="enable-background:new 0 0 485.2 485.2;" xml:space="preserve">
<style type="text/css">
	.st0{fill:#777777;}
</style>
<g>
	<g>
		<path class="st0" d="M471.9,407.6L360.6,296.2C344,322,322,344,296.2,360.6l111.3,111.3c17.8,17.8,46.6,17.8,64.3,0
			C489.7,454.1,489.7,425.3,471.9,407.6z"/>
		<path class="st0" d="M363.9,182c0-100.5-81.5-182-182-182C81.5,0,0,81.5,0,182s81.5,182,182,182
			C282.4,363.9,363.9,282.4,363.9,182z M182,318.4c-75.3,0-136.5-61.2-136.5-136.5S106.7,45.5,182,45.5
			c75.2,0,136.5,61.2,136.5,136.5S257.2,318.4,182,318.4z"/>
		<path class="st0" d="M75.8,182h30.3c0-41.8,34-75.8,75.8-75.8V75.8C123.4,75.8,75.8,123.4,75.8,182z"/>
	</g>
</g>
</svg>
